packages/kaspersky-hexa-ui-icons/src/iconsSVGs/16x12/FlagXk.svg

<svg width="16" height="12" viewBox="0 0 16 12" fill="none" xmlns="http://www.w3.org/2000/svg">
<g clip-path="url(#clip0_41916_366)">
<path d="M0 0H16V12H0V0Z" fill="#244AA5"/>
<path d="M8.08781 3.857C8.15583 3.93638 8.20137 4.0157 8.20137 4.11219C8.14426 4.14042 8.06535 4.15195 8.01981 4.20298C8.30338 4.16319 8.35987 4.49201 8.67745 4.36723C8.68898 4.41277 8.73452 4.45252 8.79099 4.43533L8.825 4.34477C8.94949 4.31076 8.91548 4.51478 9.05206 4.47502C9.12012 4.5318 9.07458 4.62805 9.12012 4.69636C9.12012 4.7756 9.15415 4.84362 9.18812 4.91162C9.22215 4.87215 9.24461 4.81537 9.32414 4.83238C9.38063 4.89463 9.42617 4.95141 9.43766 5.01941C9.41462 5.14996 9.38061 5.26321 9.51663 5.33121V5.37098C9.60771 5.41074 9.81175 5.33121 9.81175 5.49C9.80018 5.54678 9.86822 5.49578 9.89128 5.52977C9.94777 5.507 10.0273 5.51855 10.0953 5.51855C10.1518 5.63757 10.0273 5.72257 9.99329 5.83035C10.0498 5.88684 10.0273 5.98914 10.0158 6.05683L9.98174 6.07385C10.0722 6.09084 10.1858 6.06292 10.2653 6.11392L10.4129 6.17039C10.4809 6.13094 10.5599 6.12487 10.6509 6.13094C10.7189 6.18196 10.6279 6.26696 10.6849 6.30643C10.7645 6.30643 10.8325 6.31798 10.8434 6.386L10.855 6.40846C10.9114 6.30643 11.0705 6.37443 11.1385 6.30099C11.2521 6.30099 11.2745 6.42548 11.331 6.4935C11.3541 6.66957 11.1385 6.74914 11.2065 6.92462C11.161 7.00961 11.0705 7.07765 11.0025 7.15718C11.025 7.16871 11.0134 7.19666 11.0134 7.21365C10.9454 7.25375 11.0025 7.37275 10.9114 7.38372C10.9005 7.45777 10.7645 7.42924 10.8094 7.50877C10.9005 7.6278 10.7645 7.70128 10.7645 7.80936C10.7074 7.87189 10.5938 7.75227 10.5938 7.87189C10.5258 7.88889 10.4578 7.80936 10.4129 7.87738C10.3898 7.95693 10.4578 7.98485 10.4469 8.0644C10.5599 8.05285 10.5939 8.16641 10.6394 8.23443L10.7529 8.34797C10.6394 8.43845 10.4918 8.33642 10.3558 8.38743C10.3218 8.37043 10.3558 8.32549 10.3218 8.3085C10.2878 8.2684 10.2198 8.2684 10.1633 8.25745C10.1742 8.3085 10.0722 8.32547 10.1178 8.38741C10.1178 8.4044 10.1402 8.45543 10.0953 8.45543C10.0042 8.48397 10.0158 8.3765 9.93618 8.41595C9.83417 8.45543 9.91372 8.60846 9.76617 8.59145C9.78863 8.72809 9.53967 8.81857 9.70968 8.93759C9.73214 8.96007 9.72061 9.00559 9.72061 9.0396C9.61858 9.13068 9.4376 9.09669 9.32408 9.06266C9.233 9.0396 9.29007 8.92604 9.25608 8.86411C9.22207 8.80704 9.12006 8.76756 9.12006 8.68801C9.052 8.66005 8.99497 8.64251 8.94943 8.58598C8.79095 8.73902 8.5979 8.88657 8.37134 8.89203C8.26933 8.94304 8.21226 9.1477 8.05376 9.06264C7.99152 9.16469 7.80418 9.06264 7.79294 9.20963C7.71917 9.23816 7.75318 9.3347 7.70795 9.37964C7.69093 9.49318 7.70795 9.58973 7.80418 9.65777C7.84395 9.74276 7.71917 9.74276 7.77017 9.82233C7.78172 9.85028 7.77017 9.89033 7.75318 9.90186C7.71917 9.91886 7.70795 9.93589 7.71917 9.96988C7.69093 9.96988 7.67942 9.98688 7.65692 10.0093C7.62838 10.0658 7.53789 10.0944 7.47536 10.1338C7.41311 10.1508 7.36757 10.1059 7.3281 10.0658C7.31655 10.1284 7.26557 10.1624 7.20332 10.1624C7.11253 10.1624 7.12955 10.0828 7.06152 10.0488C7.08976 9.9468 6.99899 9.90186 7.02752 9.81078C7.10127 9.75431 7.22578 9.71424 7.19177 9.59523C7.11253 9.49927 7.14076 9.35718 7.06152 9.24364C7.01052 9.1987 6.92551 9.1307 6.95374 9.02261C7.02752 8.93761 6.95374 8.83558 6.91397 8.7451C6.89698 8.67104 6.85173 8.60304 6.85173 8.518C6.72695 8.44454 6.72118 8.25143 6.54539 8.23443C6.42061 8.23443 6.39813 8.07593 6.27335 8.08686C6.26182 8.0644 6.23359 8.04741 6.21082 8.02493C6.12034 8.08686 6.0068 8.00793 5.89352 8.03586C5.81975 7.91137 5.95577 7.74134 5.75721 7.66725V7.58832C5.77998 7.59923 5.79123 7.57675 5.79698 7.56524C5.80822 7.48023 5.65518 7.4693 5.71774 7.37273C5.68373 7.34421 5.64396 7.33266 5.66673 7.27619C5.58143 7.10069 5.32638 7.11771 5.2696 6.94161C5.31514 6.90216 5.31514 6.86206 5.33216 6.82807C5.29237 6.76005 5.28116 6.68657 5.29237 6.6131C5.33216 6.60155 5.35462 6.55057 5.37739 6.51047C5.32638 6.47648 5.26412 6.42548 5.20736 6.44247C5.10535 6.42548 5.03155 6.34653 4.94078 6.30099C4.91801 6.27851 4.92957 6.23845 4.92957 6.21051C5.05432 6.17041 4.91257 5.99463 5.06559 6.01742C5.10537 5.96641 5.19037 5.9494 5.25263 5.90963C5.31517 5.89841 5.36617 5.92116 5.42842 5.93818C5.47942 6.00589 5.57021 5.97765 5.62119 6.03441C5.6722 6.02288 5.73476 5.99463 5.797 6.02288C5.797 5.92663 5.84225 5.86985 5.91054 5.80183C5.92178 5.76235 5.98403 5.73383 6.03503 5.71135C6.1316 5.73383 6.24485 5.73383 6.31316 5.66581C6.35841 5.69433 6.39817 5.63757 6.44918 5.63757C6.5114 5.62604 6.56243 5.64304 6.60797 5.67158C6.61343 5.55802 6.81199 5.65457 6.85177 5.51855C6.89702 5.42776 6.72699 5.39377 6.73821 5.31422C6.70998 5.22343 6.778 5.1782 6.81199 5.11595C6.85175 5.09894 6.897 5.07619 6.94801 5.08741C7.07856 5.04216 6.97653 4.7756 7.18635 4.87215C7.18635 4.9004 7.17482 4.93439 7.19181 4.94017C7.26559 4.94017 7.27691 4.85507 7.32814 4.82663C7.3506 4.74739 7.29962 4.65084 7.36762 4.58858C7.40163 4.58282 7.43015 4.57158 7.45263 4.54304C7.45263 4.48079 7.41862 4.4468 7.36762 4.40702C7.35062 4.43535 7.30537 4.41279 7.27691 4.42403C7.27691 4.35601 7.23735 4.31078 7.22582 4.24823C7.19181 4.23123 7.17482 4.203 7.18635 4.16321C7.23735 4.11221 7.18635 3.98743 7.30537 4.01572C7.35062 3.97619 7.43015 4.00442 7.4754 3.9364C7.59443 3.8684 7.7532 3.8684 7.84399 3.74362C7.88375 3.74938 7.929 3.70961 7.96877 3.74362C7.98003 3.81738 8.08781 3.78883 8.08781 3.857Z" fill="#D0A650"/>
<path d="M8.96579 2.31956L8.80902 1.83763L8.65418 2.31956H8.14709L8.55741 2.61762L8.40064 3.09955L8.80902 2.80149L9.21934 3.09955L9.06256 2.61762L9.47288 2.31956H8.96579Z" fill="white"/>
<path d="M10.5606 2.6002L10.4039 2.12021L10.249 2.6002H9.74194L10.1523 2.89826L9.99549 3.38019L10.4039 3.08213L10.8142 3.38019L10.6574 2.89826L11.0677 2.6002H10.5606Z" fill="white"/>
<path d="M12.0819 3.15374L11.927 2.67375L11.7703 3.15374H11.2632L11.6735 3.4518L11.5167 3.93373L11.927 3.63567L12.3354 3.93373L12.1787 3.4518L12.589 3.15374H12.0819Z" fill="white"/>
<path d="M7.3458 2.31956L7.19096 1.83763L7.03419 2.31956H6.5271L6.93742 2.61762L6.78064 3.09955L7.19096 2.80149L7.59934 3.09955L7.44257 2.61762L7.85289 2.31956H7.3458Z" fill="white"/>
<path d="M5.75095 2.6002L5.59611 2.12021L5.43934 2.6002H4.93225L5.34257 2.89826L5.1858 3.38019L5.59611 3.08213L6.00449 3.38019L5.84772 2.89826L6.25804 2.6002H5.75095Z" fill="white"/>
<path d="M4.22971 3.15374L4.07294 2.67375L3.9181 3.15374H3.41101L3.82133 3.4518L3.66456 3.93373L4.07294 3.63567L4.48325 3.93373L4.32648 3.4518L4.7368 3.15374H4.22971Z" fill="white"/>
</g>
<defs>
<clipPath id="clip0_41916_366">
<rect width="16" height="12" rx="1.2" fill="white"/>
</clipPath>
</defs>
</svg>

<svg xmlns="http://www.w3.org/2000/svg" width="16" height="12" fill="none" viewBox="0 0 16 12"><g clip-path="url(#a)"><path fill="#244aa5" d="M0 0h16v12H0z"/><path fill="#d0a650" d="M8.0878 3.857c.068.0794.1136.1587.1136.2552-.0571.0282-.136.0398-.1816.0908.2836-.0398.34.289.6577.1642.0115.0456.057.0853.1135.0681l.034-.0905c.1245-.034.0905.17.227.1302.0681.0568.0226.153.0681.2214 0 .0792.034.1472.068.2152.034-.0394.0565-.0962.136-.0792.0565.0622.102.119.1136.187-.023.1306-.057.2438.079.3118v.0398c.091.0397.295-.0398.295.119-.0115.0568.0565.0058.0796.0398.0565-.0228.136-.0112.204-.0112.0565.119-.068.204-.102.3117.0565.0565.034.1588.0225.2265l-.034.017c.0904.017.204-.0109.2835.0401l.1476.0565c.068-.0395.147-.0455.238-.0395.068.051-.023.136.034.1755.0796 0 .1476.0116.1585.0796l.0116.0225c.0564-.102.2155-.034.2835-.1075.1136 0 .136.1245.1925.1925.0231.176-.1925.2556-.1245.4311-.0455.085-.136.153-.204.2326.0225.0115.0109.0395.0109.0565-.068.04-.0109.159-.102.17-.0109.074-.1469.0455-.102.125.0911.1191-.0449.1926-.0449.3007-.0571.0625-.1707-.0571-.1707.0625-.068.017-.136-.0625-.1809.0055-.0231.0795.0449.1075.034.187.113-.0115.147.102.1925.17l.1135.1136c-.1135.0904-.2611-.0116-.3971.0394-.034-.017 0-.062-.034-.0789-.034-.0401-.102-.0401-.1585-.051.0109.051-.0911.068-.0455.13 0 .0169.0224.068-.0225.068-.0911.0285-.0795-.079-.1591-.0396-.102.0395-.0225.1926-.17.1755.0224.1367-.2265.2272-.0565.3462.0224.0225.011.068.011.102-.1021.091-.2831.057-.3966.023-.0911-.023-.034-.1366-.068-.1985-.034-.057-.136-.0965-.136-.176-.0681-.028-.1251-.0456-.1707-.1021-.1585.153-.3515.3006-.578.306-.102.051-.1591.2557-.3176.1706-.0623.102-.2496 0-.2609.147-.0737.0286-.0397.1251-.085.17-.017.1136 0 .2101.0963.2782.0398.085-.085.085-.034.1645.0115.028 0 .068-.017.0796-.034.017-.0452.034-.034.068-.0283 0-.0398.017-.0623.0394-.0285.0565-.119.0851-.1815.1245-.0623.017-.1078-.0279-.1473-.068-.0115.0626-.0625.0966-.1248.0966-.0908 0-.0737-.0796-.1418-.1136.0283-.102-.0625-.147-.034-.238.0738-.0565.1983-.0966.1643-.2156-.0793-.096-.051-.238-.1303-.3516-.051-.0449-.136-.1129-.1078-.221.0738-.085 0-.187-.0397-.2775-.017-.074-.0623-.142-.0623-.2271-.1247-.0735-.1305-.2666-.3063-.2836-.1248 0-.1473-.1585-.272-.1475-.0116-.0225-.0398-.0395-.0626-.062-.0905.062-.204-.017-.3173.011-.0738-.1245.0623-.2946-.1363-.3686v-.079c.0228.011.034-.0116.0398-.023.0112-.085-.1418-.096-.0793-.1926-.034-.0285-.0737-.04-.051-.0965-.0853-.1755-.3403-.1585-.3971-.3346.0455-.0394.0455-.0795.0626-.1135a.32.32 0 0 1-.0398-.215c.0398-.0116.0622-.0625.085-.1026-.051-.034-.1133-.085-.17-.068-.102-.017-.1758-.096-.2666-.1415-.0228-.0225-.0112-.0625-.0112-.0905.1247-.04-.017-.2159.136-.193.0398-.051.1248-.0681.187-.1079.0626-.0112.1136.0116.1758.0286.051.0677.1418.0394.1928.0962.051-.0115.1136-.0398.1758-.0115 0-.0963.0453-.153.1135-.221.0113-.0396.0735-.068.1245-.0905.0966.0224.2098.0224.2782-.0456.0452.0285.085-.0282.136-.0282.0622-.0116.1132.0054.1588.034.0054-.1136.204-.017.2438-.153.0452-.0908-.1248-.1248-.1136-.2044-.0282-.0908.0398-.136.0738-.1982.0397-.017.085-.0398.136-.0286.1306-.0452.0285-.3118.2383-.2152 0 .0282-.0115.0622.0055.068.0738 0 .0851-.0851.1363-.1136.0225-.0792-.0285-.1758.0395-.238.034-.0058.0625-.017.085-.0456 0-.0622-.034-.0962-.085-.136-.017.0283-.0622.0058-.0907.017 0-.068-.0396-.1132-.051-.1758-.034-.017-.051-.0452-.0396-.085.051-.051 0-.1758.119-.1475.0453-.0395.1249-.0113.1701-.0793.119-.068.2778-.068.3686-.1928.0397.0058.085-.034.1248 0 .0112.0738.119.0452.119.1134"/><path fill="#fff" d="m8.966 2.32-.157-.482-.155.482h-.507l.41.298L8.4 3.1l.408-.298.41.298-.157-.482.41-.298zm1.595.28-.157-.48-.155.48h-.507l.41.298-.157.482.408-.298.41.298-.157-.482.41-.298zm1.521.554-.155-.48-.157.48h-.507l.41.298-.157.482.41-.298.408.298-.157-.482.41-.298zM7.346 2.32l-.155-.482-.157.482h-.507l.41.298-.157.482.41-.298.408.298-.157-.482.41-.298zm-1.595.28-.155-.48-.157.48h-.507l.41.298-.157.482.41-.298.408.298-.157-.482.41-.298zm-1.521.554-.157-.48-.155.48h-.507l.41.298-.157.482.408-.298.41.298-.157-.482.41-.298z"/></g><defs><clipPath id="a"><rect width="16" height="12" fill="#fff" rx="1"/></clipPath></defs></svg>
